X: 38728
T: Street Player, The
R: reel
M: 4/4
K: Dmajor
FE|:DFAd (3fef ec|dcde fdAF|GFED CDEF|GBAG EA,CE|
FDA,E FGA=c|BGBG ^cdeg|fagf edcd|(3efe d2 d2:|
eg|:(3fgf dc dfaf|gbed cdeg|fg (3agf gfed|(3cBA (3BA^G A=GFE|
FDFA dAFA|GFGB edcB|Adfa gecd|(3efe d2 d2:|

